X:1
T:- # -
%%score [ 1 2 3 4 ]
L:1/8
M:4/4
K:C
V:1 treble nm="Sopran" snm=" "
V:2 treble nm="Alt"
V:3 treble-8 nm="Tenor"
V:4 bass nm="Baß"
V:1
"^Christobal de Morales" A8 | d8 | c4 f4- | f2 e2"^XIX.  In illo tempore stabant autem" d4- | %4
w: In|il-|lo tem-||
"^5" d2 c2 _B4 | A8- |"^1546" A8 | z8 | F4 G3 A |"^10" _B2 A2 G2 G2 | ^F8 | z8 | z8 | z8 | %14
w: * * po-|re,|||in il- *|* lo tem- po-|re||||
"^15" z8 | A8 | e4 f4- | f4 e4- | e4 e4- |"^20" e2 d2 c3 B | A4 c4- | c2 B2 e4- | e2 dc d4 | %23
w: |sta-|bant au-|* tem|* iux-|* ta cru- *|cem Ie-|* su ma-|* * * ter|
 c3 B A4 |"^25" G4 z4 | z8 | B4 e4 | e4 d4- | d2 c2 B2 A2- |"^30" A^G/^F/ G2 A4- | A8 | z8 | %32
w: e * *|ius||et so-|ror ma-|* tris e *|* * * * ius|||
 z2 E2 A4 | A4 G4- |"^35" G2 G2 A3 B | c2 A3 GFE | F4 E4- | E4 z4 | e6 e2 |"^40" c8 | A8 | %41
w: Ma- ri-|a Cle-|* o * *||* ~pae||et Ma-|ri-|a|
 d4 c2 f2- | fe e4 d2 | e4 A2 c2- |"^45" cB A4 G2 | A8 | z4 A4- | A2 A2 B3 c | d8 |"^50" c4 f4- | %50
w: Mag- da- le-|* * * ne,|Mag- da- le-||~ne.|Cum|* vi- dis- set|er-|go Ie-|
 f2 e2 d4- | d4 c3 B | A2 G3 F D2 | E4 A4- |"^55" A4 D4 | z4 A4- | A2 G2 A3 B | c2 d4 c2 | f8 | %59
w: |||sus ma-|* trem|et|* dis- ci- *|* * pu-|lum|
"^60" e4 d4 | z2 d4 c2 | A2 c3 B A2 | G4 A4 | z8 |"^65" c6 B2 | A4 G4- | G4 E3 F | G4 A4 | %68
w: stan- tem,|quem di-|li- * * *|ge- ~bat,||di- xit|ma- tri|* su- *||
 B2 c2 A2 c2- |"^70" c2 BA G2 A2- | A2 ^G2 A4 | A8 | A4 A4 | E6 E2 |"^75" F2 G2 A4 | G2 A3 GFE | %76
w: ||* * ae:|Mu-|\-li~- er,|ec- ce|fi- li- us|tu * * * *|
 F3 G A4 | z4 z2 e2- | e2 d2 c3 B |"^80" A2 G2 c4 | B4 A4- | A4 A4 | A8 | E2 A4 ^G2 | %84
w: * * ~us,|ec-|* ce fi *|\-li- us tu-|* us.|* De-|in-|de di- *|
"^85" A2 c3 B/A/ B2 | c2 d2 G2 A2- | A2 G2 F4 | E4 z4 | A6 B2 |"^90" c4 d3 e | f2 e4 d2- | %91
w: \-xit dis * * *|ci- * * *|* * pu-|~lo:|Ec- ce,|ma- * *|ter tu- *|
 d2 ^c2 d4 | z8 | z4 e4- |"^95" e2 e2 A3 B | c2 B3 A A2- | A2 ^G2 A4- | A4 z4 | z8 | %99
w: * * a,||ec-|* ce ma- *|* * ter tu-|* * a.|||
"^100" z4 z2 d2- | d2 c2 d4 | A2 f4 e2 | d4 c2 d2- | dcBA B2 A2- |"^105" A2 ^G2 A2 A2- | A2 c4 B2 | %106
w: Et|* ex il-|la ho- *|||* * ra ac-|* ce- *|
 A2 d4 c2 | f4 e4 | z8 |"^110" B4 c4- | c2 d2 e4 | f3 e d2 c2 | B2 c4 B2 | c4 z4 |"^115" z8 | z8 | %116
w: pit e- *|* am||dis- ci-|* pu- lus|in * * *|su- * *|am,|||
 A4 c4- | c2 d2 e4 | f3 e d2 c2- |"^120" c2 B2 A4 | G2 c4 B2- | BA A4 ^G2 | A8- | A8- | A8 |] %125
w: dis- ci-|* pu- lus|in * * su-||~am, in su-||~am.|||
V:2
 z8 | D8 | A8 | G4 _B4- | B2 A2 G4 | F6 ED | F2 E2 CDEF | G4 F3 E | D2 C2 _B,4 | G,2 A,2 D4- | D8 | %11
w: |In|il-|lo tem-||po- * *||||* * re||
w: |||||||||||
 z8 | z8 | A,8 | E4 F4- | F4 E4 | A8 | G4 G4- | G4 E4 | F3 G A4 | z4 A4 | G4 E4 | A8 | A,4 E4 | %24
w: ||sta-|\-bant au-|* tem|iux-|ta cru-|* cem|Ie- * su|ma-|ter e-|\-ius|* so-|
w: ||||||||||||et *|
 E4 G4 | F2 E4 D2 | G4 GFED | E2 C2 D4 | A,4 z2 A,2 | E4 E4 | C6 C2 | D2 E3 DCB, | A,2 C3 B,A,G, | %33
w: ror ma-|tris e *||||\-ri- a|Cle- o|||
w: ||||ius ~Ma-|||||
 A,4 B,4 | E6 E2 | C4 A,4 | A4 A3 G | EF G2 A2 F2 | G2 A4 G2 | A2 A,3 B,CD | E4 F3 G | A8 | %42
w: pae *|et Ma-||Mag- da *||* * le-|ne, * * * *||\-ne.|
w: ||\-ri- a||||* Mag~ * * *|da- le *||
 A,6 B,2 | C2 A,2 E4- | E4 D4- | D4 F4- | F4 E4 | z4 D4- | D2 E2 F2 G2 | A8 | G4 _B4 | A4 A3 G/F/ | %52
w: |* * er-|* go|* Ie-|* sus,|cum|* vi- dis- set|er-|go Ie-||
w: Cum vi-|dis- set *|||||||||
 E4 z4 | A8 | D2 F4 ED | E2 A,2 C4 | B,2 C4 D2 | A,4 A4- | A4 D4 | z2 A4 G2 | F2 F2 E2 F2- | %61
w: sus|ma-||||* ma-|* trem|et dis-|\-ci- pu- lum stan-|
w: |||||~trem, *||||
 FE E4 D2 | E4 A,3 B, | C2 D2 C2 A,2 | E4 z2 G2- | G2 F2 E4 | D4 C2 E2- | E2 D2 E3 F | %68
w: |tem * *||* di-|* xit ma-|\-tri su *||
w: |* quem *|di- li- ge- *|~bat, *||||
 G2 E2 FE E2- | E2 D2 E4- | E8 | F6 E2 | D4 C4- | C4 A,4- | A,2 B,2 C2 D2 | E2 F3 E E2- | %76
w: |* * ae:||Mu- *|\-li~- er,||* * fi- li-|us tu * *|
w: |||||* ec-|* ce * *||
 E2 D2 F2 E2 | A4 z2 A2- | A2 A2 A3 G/F/ | E3 F GC F2- | F2 E2 F4- | F4 D4 | C3 D E4 | z4 E4 | E8 | %85
w: |~us, ec-|* ce fi * *||* li- us|* tu-|* * ~us.|De-|\-in-|
w: |||||||||
 A,4 C4 | B,2 E4 D2- | D2 C2 D4 | A,4 z4 | A6 G2 | A4 F4 | E4 D2 F2- | F2 E2 A4 | G6 E2 | G4 F4 | %95
w: de di-|xit dis- ci-|* * pu-|~lo:|Ec- ce|ma- ter|tu- ~a, ec-|* ce ma-|ter tu-||
w: ||||||||||
 E3 D E2 F2 | D4 E4 | z2 A4 G2 | A4 E4 | F8 | E4 D2 F2- | FG A2 D2 E2 | F4 E2 D2 | A4 z4 | z4 E4 | %105
w: |* ~a.|Et ex|il- ~la|ho-||||ra|ac-|
w: ||||||||||
 A6 G2 | F2 ED E4 | D4 z2 E2 | A6 A2 | G4 E2 A2- | A2 GF G2 A2- | A2 D4 G2- | G2 G2 G4 | %113
w: ce- pit|e * * *|am dis-|\-ci- pu-|lus in su-|* * * * am,|* dis- ci-|* pu- lus|
w: ||||||||
 E2 A3 G G2- | GFED F2 E2 | A4 G2 E2 | F4 E2 A2- | A2 GF G2 A2- | A2 D2 A4- | A2 GF E2 C2- | %120
w: in su- * *|||||||
w: |||||||
 C2 A,2 z2 B,2 | D2 D2 E4- | E4 F4- | F2 E2 D4 | C8 |] %125
w: * am, dis-|ci- pu- lus|* in|* su- *|~am.|
w: |||||
V:3
 z8 | z8 | z8 | z8 | G8 | d8 | c4 e4- | e2 e2 d4 | z2 f4 e2 | d3 c _B4 | A8 | A8 | e4 f4- | %13
w: ||||In|il-|lo tem-|* po- ~re,|tem- *|* * po-|re|sta-|bant au-|
 f4 e3 d | c2 B2 c2 A2 | d6 c2 | c8 | z8 | c8 | d4 f4- | f2 f2 f4 | e2 d4 c2 | f6 ed | f2 e2 c4 | %24
w: |||tem||iux-|ta cru-|* cem Ie-|su ma- ter|e- * *|* * ius|
 z8 | z4 A4 | e4 e4 | g6 f2 | e4 d2 c2 | B4 c3 d | e4 z4 | z2 B2 e4 | e4 c4- | c2 d2 e3 d | %34
w: |et|so- ror|ma- tris|e- * *||ius|Ma- ri-|a Cle-||
 cB c4 BA | e4 z2 d2- | d2 d2 c4 | A2 e4 d2 | c2 BA B4 | z2 e4 e2 | c4 A4 | f6 c2 | d2 e2 f4 | %43
w: * * o- * *|\-pae et|* Ma- ri-|a Mag- da-|le- * * ~ne,|et Ma-|ri- a|Mag- *|da * *|
 e3 d cB A2 | c4 B4 | z4 A4- | A2 B2 c2 d2 | e3 f g4 | f4 d4 | e2 f3 e f2 | c4 f4- | f4 e4 | %52
w: |le- ~ne.|Cum|* vi- dis- set|er- * *|\-go Ie-|||* sus|
 z2 e3 d d2- | d2 c2 e2 f2- | fe a3 ^g/^f/ g2 | a4 e4- | e4 A2 f2- | f2 f2 e2 e2 | d4 d4 | A4 z4 | %60
w: ma- * *|||trem, ma-|* trem et|* dis- ci- pu-|lum stan-|~tem,|
 z8 | z4 A4 | c6 d2 | e2 f4 ed | c4 d4- | d4 z2 c2- | c2 B2 A4 | G4 c4 | d2 c3 BAG | A4 B4- | %70
w: |quem|di- li-|ge- * * *|* ~bat,|* di-|* xit ma-|tri su|||
 B4 A4 | d8 | f4 e4- | e2 dc c4 | z8 | z4 A4- | A2 B2 c3 d | e2 f2 d2 e2 | f4 e4 | c2 e4 dc | %80
w: * ~ae:|Mu-||* li- * er,||ec-|* ce fi- li-|us tu * *|* us,|fi- * * *|
 d2 B2 c2 d2- | d2 c2 ABcd | e3 d cB c2- | c2 BA B4 | A4 z4 | z2 d2 e4- | e4 A4- | A4 f4 | %88
w: * li- us tu-||||\-us.|De- in-|* de|* di-|
 f2 e2 f3 e/d/ | f2 e2 d4 | c4 z4 | A6 A2 | B2 c2 defd | e2 d4 cB | c4 d2 A2- | A2 B2 c2 d2 | %96
w: xit dis- ci * *|* pu- lo:||Ec- ce|ma- ter tu * * *||* a, ec-|* ce ma- ter|
 B4 A4 | f4 e4- | e2 dc B2 c2 | A8- | A8 | z2 d4 c2 | d4 A4 | f6 e2 | d4 c3 d | e2 f2 d4- | %106
w: tu- *|||a.||Et ex|il- la|ho- *||* * ra|
 d4 z2 A2- | A2 d4 c2 | f2 e4 d2 | e4 A4 | c6 c2 | d3 e f2 e2- | e2 dc d2 e2- | e2 c2 d4 | %114
w: * ac-|* ce- pit|e- * *|am dis-|ci- pu-|lus * * in|* * * * su-||
 e2 AB cA B2 | c2 d4 c2 | d4 z2 A2 | c6 c2 | d2 f3 edc | d4 c2 f2- | f2 e3 c d2- | dc A2 B4 | %122
w: \-am, in * * * *|su- * *|am, dis-|ci- pu-|lus in * * *|su- * *|||
 c6 d2 | e4 f4 | e8 |] %125
w: ||~am.|
V:4
 z8 | z8 | z8 | z8 | z8 | D,8 | A,8 | G,4 _B,4- | B,2 A,2 G,4- | G,2 F,2 G,4 | D,8 | z8 | A,8 | %13
w: |||||In|il-|\-lo tem-||* * po-|re||sta-|
 D,4 A,4- | A,2 G,2 F,3 E, | D,4 A,4- | A,4 F,4 | C8 | C,8 | z4 F,4- | F,4 F,4 | G,4 A,4 | z4 D,4 | %23
w: bant au-||tem iux-|* ta|cru-|cem|Ie-|* su|ma- ter|et|
 A,4 A,4 | C6 B,2 | %25
w: so- ror|ma- tris|
 A,2"^© Michael Wendel 2005\nThis edition may be freely duplicated, distributed, performed or recorded for non-profit performance or use.\n" G,2 F,4 | %26
w: e * *|
 E,8 | z8 | z8 | E,4 A,4 | A,4 F,4- | F,2 G,2 A,3 B, | C2 A,3 G,F,E, | F,4 E,4 | z4 A,4- | %35
w: ius|||Ma- ri-|a Cle|||o- pae|et|
 A,2 A,2 F,4 | D,4 A,4- | A,2 G,2 F,4 | E,8 | A,4 z2 A,2- | A,2 A,2 F,4 | D,4 F,4- | F,2 C,2 D,4 | %43
w: * Ma- ri-|a~ Mag-|* * da-|le-|~ne, et|* Ma- ri-|\-a~ Mag-|* da- le-|
 A,8- | A,4 z4 | D,6 E,2 | F,2 D,2 A,4- | A,4 G,4 | B,8 | A,3 F, F,4 | z4 D4- | D4 A,4 | C6 B,2 | %53
w: ne.||Cum vi-|dis- set er-|* go|Ie-|* * sus|ma-|* trem|et dis-|
 A,3 B, C2 D2- | DCB,A, B,4 | A,8 | E,4 z4 | A,8 | D,4 z2 D2- | D2 C2 B,2 B,2 | A,8 | D,2 E,2 F,4 | %62
w: ci- pu- lum stan-|||~tem,|ma-|trem et|* dis- ci- pu-|\-lum|stan * *|
 C,4 F,4 | E,2 D,2 A,4- | A,4 G,3 F, | D,4 G,4- | G,4 z2 C2- | C2 B,2 A,4 | G,2 A,3 G,F,E, | %69
w: tem, quem|di- li- ge-||* bat,|* di-|* xit ma-|tri su * * *|
 F,4 E,4- | E,4 z4 | D,8 | D,4 A,4- | A,4 z4 | z8 | z8 | z4 A,4- | A,2 A,2 B,2 C2 | D4 A,4- | %79
w: * ae:||Mu-|\-li~~- er,||||ec-|* ce fi- li-|us tu-|
 A,2 C4 B,A, | G,4 F,4- | F,4 z4 | A,4 A,4- | A,4 E,4 | A,6 G,2 | F,3 E,/D,/ C,3 D, | E,4 z2 D,2 | %87
w: |* ~us.||De- in-|* de|di- *||xit, de-|
 A,4 D,2 D2- | D2 C2 D4 | A,2 C2 B,4 | A,4 z4 | z4 D,4- | D,2 E,2 F,4 | G,4 E,4- | E,4 D,4 | z8 | %96
w: in- de di-|* xit dis-|\-ci- pu- lo:||Ec-|* ce ma-|ter tu-|* a.||
 z2 D4 C2 | D4 A,2 C2- | C2 B,A, G,2 A,2 | F,2 D,2 F,3 G, | A,4 D,4- | D,4 z4 | z4 z2 D,2- | %103
w: Et ex|il- la ho|||* ra||ac-|
 D,2 D4 C2 | B,4 A,4 | A,G,F,E, F,2 G,2 | D,4 z4 | D,4 A,4- | A,2 G,2 F,4 | E,4 z4 | z8 | %111
w: * ce- pit|e- *||am,|ac- ce-|* pit e-|am||
 z4 z2 E,2 | G,6 G,2 | A,4 B,4 | C3 B, A,2 G,2 | F,2 E,D, E,4 | D,4 z4 | z8 | D,4 F,4- | %119
w: dis-|ci- pu-|lus in|su- * * *||am,||dis- ci-|
 F,2 G,2 A,4 | C3 B, A,2 G,2 | F,4 E,4 | A,3 G, F,E, D,2- | D,2 C,2 D,4 | A,8 |] %125
w: * pu- lus|in * * *|su- am,|in * * * *|* * su-|~am.|

